src/assets/img/Home/icons/euro.svg

<svg width="36" height="36" viewBox="0 0 36 36" fill="none" xmlns="http://www.w3.org/2000/svg">
<g id="Icon">
<path id="Shape" d="M35.352 17.6875C35.352 27.2141 27.6294 34.9369 18.1029 34.9369C8.57626 34.9369 0.853516 27.2141 0.853516 17.6875C0.853516 8.16098 8.57626 0.438232 18.1029 0.438232C27.6293 0.438232 35.352 8.16098 35.352 17.6875Z" fill="#262626"/>
<g id="euro-currency-symbol">
<path id="Shape_2" d="M22.9504 24.8947L22.5524 23.0873C22.5298 22.981 22.4729 22.9014 22.3818 22.8486C22.2833 22.7954 22.1848 22.788 22.0864 22.8259L22.0294 22.8486L21.8928 22.8826C21.8321 22.8976 21.762 22.9148 21.6825 22.9337C21.6029 22.9526 21.5102 22.9714 21.404 22.9905C21.2982 23.0095 21.1859 23.0266 21.0687 23.0418C20.9513 23.0566 20.8246 23.0701 20.688 23.0815C20.5515 23.0927 20.4152 23.0985 20.2787 23.0985C19.3161 23.0985 18.4501 22.839 17.681 22.3198C16.9117 21.8005 16.3452 21.0976 15.9814 20.211H20.3808C20.4643 20.211 20.5401 20.1827 20.608 20.1257C20.6765 20.069 20.7182 19.999 20.733 19.9153L21.0059 18.642C21.0287 18.5287 21.0059 18.4262 20.9378 18.3352C20.8621 18.2442 20.7671 18.1986 20.6536 18.1986H15.4358C15.4131 17.6833 15.4131 17.2854 15.4358 17.005H20.9835C21.1883 17.005 21.3094 16.9065 21.3473 16.7095L21.6201 15.4135C21.6427 15.3074 21.6166 15.209 21.5405 15.1179C21.4726 15.027 21.3778 14.9813 21.2565 14.9813H15.9361C16.315 14.1325 16.8834 13.4656 17.6414 12.9806C18.3993 12.4954 19.2557 12.2529 20.2106 12.2529C20.241 12.2378 20.3527 12.2416 20.5458 12.2643C20.739 12.2869 20.8491 12.2965 20.8755 12.2927C20.9017 12.2889 21.0006 12.3004 21.171 12.3267C21.3416 12.3532 21.4269 12.3665 21.4269 12.3665L21.6258 12.4063C21.6828 12.4177 21.7264 12.4271 21.7566 12.4347L21.8021 12.446C21.9006 12.4765 21.9913 12.4669 22.075 12.4177C22.1584 12.3683 22.2115 12.2945 22.2343 12.196L22.7232 10.3885C22.7458 10.2899 22.7343 10.199 22.6891 10.1157C22.6208 10.0246 22.5449 9.96773 22.4616 9.94508C21.7644 9.7708 21.0289 9.68359 20.2561 9.68359C18.5582 9.68359 17.0407 10.1688 15.703 11.1387C14.3653 12.1088 13.4426 13.3897 12.9348 14.9812H11.8208C11.7146 14.9812 11.6275 15.0153 11.5593 15.0835C11.4912 15.1516 11.457 15.2388 11.457 15.345V16.6409C11.457 16.747 11.4911 16.8342 11.5593 16.9023C11.6276 16.9706 11.7148 17.0045 11.8208 17.0045H12.5825C12.5596 17.3684 12.556 17.7661 12.571 18.1983H11.8208C11.7223 18.1983 11.637 18.2343 11.565 18.3063C11.4931 18.3782 11.457 18.4635 11.457 18.5619V19.8466C11.457 19.9452 11.4931 20.0303 11.565 20.1025C11.637 20.1745 11.7223 20.2101 11.8208 20.2101H12.9008C13.3782 21.8851 14.2802 23.2172 15.6065 24.2062C16.9329 25.1955 18.4827 25.6898 20.2561 25.6898C20.4002 25.6898 20.546 25.6863 20.6939 25.6784C20.842 25.6708 20.9801 25.6593 21.1089 25.6443C21.2377 25.6293 21.3647 25.6124 21.4898 25.5934C21.6148 25.5743 21.7285 25.5557 21.8307 25.5364C21.9331 25.5176 22.0297 25.4987 22.1206 25.4799C22.2116 25.4607 22.2931 25.4401 22.3652 25.4172C22.4371 25.3947 22.4975 25.3775 22.5469 25.3664C22.5963 25.3549 22.636 25.3414 22.6661 25.3266L22.7231 25.3151C22.8065 25.2849 22.871 25.2298 22.9164 25.1501C22.9619 25.071 22.973 24.9856 22.9504 24.8947Z" fill="#CAFF33"/>
</g>
</g>
</svg>

<svg xmlns="http://www.w3.org/2000/svg" width="36" height="36" fill="none"><path fill="#262626" d="M35.352 17.688c0 9.526-7.723 17.249-17.25 17.249-9.526 0-17.248-7.723-17.248-17.25C.854 8.162 8.576.439 18.103.439c9.526 0 17.249 7.723 17.249 17.25Z"/><path fill="#CAFF33" d="m22.95 24.895-.398-1.808a.347.347 0 0 0-.17-.238.34.34 0 0 0-.296-.023l-.057.023-.136.034-.21.05a6.995 6.995 0 0 1-1.404.165 4.579 4.579 0 0 1-4.297-2.888h4.399c.083.001.16-.027.227-.084a.344.344 0 0 0 .125-.21l.273-1.274a.37.37 0 0 0-.068-.307.355.355 0 0 0-.284-.136h-5.218a10.241 10.241 0 0 1 0-1.194h5.547c.205 0 .326-.098.364-.296l.273-1.295a.333.333 0 0 0-.08-.296.335.335 0 0 0-.284-.137h-5.32a4.49 4.49 0 0 1 1.705-2c.758-.486 1.615-.728 2.57-.728.03-.015.142-.011.335.011.193.023.303.033.33.029a1.9 1.9 0 0 1 .295.034l.256.04.199.04c.057.01.1.02.13.028l.046.011a.334.334 0 0 0 .432-.25l.49-1.807a.377.377 0 0 0-.035-.273.432.432 0 0 0-.227-.17 9.067 9.067 0 0 0-2.206-.262c-1.698 0-3.215.485-4.553 1.455-1.338.97-2.26 2.25-2.768 3.842H11.82a.354.354 0 0 0-.262.103.354.354 0 0 0-.102.261v1.296c0 .106.034.193.102.261a.354.354 0 0 0 .262.102h.761c-.022.364-.026.762-.011 1.194h-.75a.35.35 0 0 0-.256.108.35.35 0 0 0-.108.256v1.285a.35.35 0 0 0 .108.255.35.35 0 0 0 .256.108h1.08c.477 1.675 1.38 3.007 2.706 3.996 1.326.99 2.876 1.484 4.65 1.484a8.2 8.2 0 0 0 .852-.046 11.05 11.05 0 0 0 1.012-.164c.09-.02.172-.04.244-.063.072-.022.133-.04.182-.05a.565.565 0 0 0 .12-.04l.056-.012a.357.357 0 0 0 .193-.165.333.333 0 0 0 .034-.255Z"/></svg>
